assets/icons/bowtie/file-comment.svg

<svg xmlns="http://www.w3.org/2000/svg" viewBox="0 0 448 448" enable-background="new 0 0 448 448"><path d="M160 412.25v-60.25h-32v-224h320v224h-187.562l-100.438 60.25zm0-92.25h32v35.75l59.563-35.75h164.437v-160h-256v160zm192-128h-160v32h160v-32zm0 64h-128v32h128v-32zm0 160h-288v-384h160v64h32v-57.375l57.375 57.375h45.25l-96-96h-230.625v448h352v-64h-32v32z"/></svg>

<?xml version="1.0" encoding="utf-8"?>
<!-- Generator: Adobe Illustrator 19.1.0, SVG Export Plug-In . SVG Version: 6.00 Build 0)  -->
<svg version="1.1" xmlns="http://www.w3.org/2000/svg" xmlns:xlink="http://www.w3.org/1999/xlink" x="0px" y="0px"
	 viewBox="0 0 448 448" style="enable-background:new 0 0 448 448;" xml:space="preserve">
<path d="M160,412.25V352h-32V128h320v224H260.438L160,412.25z M160,320h32v35.75L251.563,320H416V160H160V320z M352,192H192v32h160
	V192z M352,256H224v32h128V256z M352,416H64V32h160v64h32V38.625L313.375,96h45.25l-96-96H32v448h352v-64h-32V416z"/>
<g>
</g>
<g>
</g>
<g>
</g>
<g>
</g>
<g>
</g>
<g>
</g>
</svg>
